icons/trash.svg

<svg width="24" height="24" viewBox="0 0 24 24" fill="none" xmlns="http://www.w3.org/2000/svg">
<path fill-rule="evenodd" clip-rule="evenodd" d="M9 2C7.89543 2 7 2.89543 7 4V6H5H3C2.44772 6 2 6.44772 2 7C2 7.55228 2.44772 8 3 8H4.10314C4.1467 8.41878 4.20032 8.9594 4.25392 9.56329C4.37844 10.9663 4.5 12.6797 4.5 14C4.5 15.8043 4.27358 18.3294 4.12555 19.7823C4.0055 20.9606 4.92687 22 6.12404 22H17.876C19.0731 22 19.9945 20.9606 19.8744 19.7823C19.7264 18.3294 19.5 15.8043 19.5 14C19.5 12.6797 19.6216 10.9663 19.7461 9.56329C19.7997 8.9594 19.8533 8.41878 19.8969 8H21C21.5523 8 22 7.55228 22 7C22 6.44772 21.5523 6 21 6H19H17V4C17 2.89543 16.1046 2 15 2H9ZM15 6V4H9V6H15ZM6.24608 9.38646C6.19989 8.86607 6.15372 8.39201 6.11372 8H17.8863C17.8463 8.39201 17.8001 8.86607 17.7539 9.38646C17.6284 10.8001 17.5 12.5866 17.5 14C17.5 15.9171 17.7369 18.5336 17.8847 19.985C17.885 19.9877 17.8849 19.989 17.8848 19.9895L17.8845 19.991C17.8841 19.9923 17.8829 19.9947 17.8807 19.9971C17.8798 19.9982 17.8789 19.9989 17.8783 19.9994C17.878 19.9997 17.8777 19.9998 17.8776 20L17.876 20H6.12404L6.12244 20C6.12185 19.9996 6.1207 19.9987 6.1193 19.9971C6.11709 19.9947 6.11594 19.9923 6.1155 19.991L6.11516 19.9895C6.11511 19.989 6.11498 19.9877 6.11525 19.985C6.26312 18.5336 6.5 15.9171 6.5 14C6.5 12.5866 6.37156 10.8001 6.24608 9.38646Z" fill="#333333"/>
</svg>

<svg xmlns="http://www.w3.org/2000/svg" width="24" height="24" fill="none" viewBox="0 0 24 24">
  <path fill="#333" fill-rule="evenodd" d="M9 2a2 2 0 00-2 2v2H3a1 1 0 000 2h1.103c.044.419.097.96.15 1.563.125 1.403.247 3.117.247 4.437 0 1.804-.226 4.33-.374 5.782A2.012 2.012 0 006.124 22h11.752a2.012 2.012 0 001.998-2.218C19.726 18.33 19.5 15.804 19.5 14c0-1.32.122-3.034.246-4.437.054-.604.107-1.144.15-1.563H21a1 1 0 100-2h-4V4a2 2 0 00-2-2H9zm6 4V4H9v2h6zM6.246 9.386C6.2 8.866 6.154 8.392 6.114 8h11.772c-.04.392-.086.866-.132 1.386-.126 1.414-.254 3.2-.254 4.614 0 1.917.237 4.534.385 5.985v.006a.018.018 0 01-.004.006l-.003.002V20H6.122l-.003-.003a.018.018 0 01-.003-.006v-.006c.147-1.451.384-4.068.384-5.985 0-1.413-.128-3.2-.254-4.614z"/>
</svg>
